X: 251
T: You're Welcome Home
C: by McIntosh Jun.r
%O: 1795
%R: reel
Z: 2018 John Chambers <jc:trillian.mit.edu>
B: Wm. Campbell "10th Book of New and Favorite Country Dances, Strathspey Reels" 1795 p.25
F: https://archive.org/details/campbellstenthbo00camp
N: The 1st endings have incorrect rhythms; fixed by adding the initial repeats.
M: C|
L: 1/8
K: G
% - - - - - - - - - - - - - - - - - - - - - - - - -
% Voice 1 arranged for small-scale proofreading
V: 1 staves=2
c !segno!|:\
BGdB G2GB | cAec A2af | gbag fedc |\
[1 BAGF Eeeg :|[2 BgdB G3 |]
g |:\
dgba gd-dg | aAag eaab |\
gbag fedc |[1 BAGF Eeeg :|[2 BgdB GBd!segno!c |]
% - - - - - - - - - - - - - - - - - - - - - - - - -
% Voice 1 preserves the original staff layout
V: 2 clef=bass middle=d
z !segno!|:\
[g2G2]g2 g2g2 | [a2A2]a2 a2a2 | g2c2 d2f2 |\
[1 g2b2 e2ex :|[2 g2d2 g3 |]
z |:\
[g2G2]g2 g2g2 | [a2A2]a2 a2a2 | g2c2 d2f2 |\
[1 g2b2 e2ex :|[2 g2d2 G3!segno!x |]
% - - - - - - - - - - - - - - - - - - - - - - - - -
%%begintext align
%% The 1st and 2d Cu Reel contrary sides and on your own sides.
%% Cast off turn your Partner with your right hand the same with the
%% left,  Swing corners and hands 4 quite round and back again.
%%endtext
% - - - - - - - - - - - - - - - - - - - - - - - - -

%%sep 1 1 500
%%sep 1 1 500

